Sweet-Rainbow/icons/aegisub.svg

<?xml version="1.0" encoding="UTF-8" standalone="no"?>
<!-- Generator: Gravit.io -->

<svg
   xmlns:dc="http://purl.org/dc/elements/1.1/"
   xmlns:cc="http://creativecommons.org/ns#"
   xmlns:rdf="http://www.w3.org/1999/02/22-rdf-syntax-ns#"
   xmlns:svg="http://www.w3.org/2000/svg"
   xmlns="http://www.w3.org/2000/svg"
   xmlns:sodipodi="http://sodipodi.sourceforge.net/DTD/sodipodi-0.dtd"
   xmlns:inkscape="http://www.inkscape.org/namespaces/inkscape"
   style="isolation:isolate"
   viewBox="0 0 36 36"
   width="48"
   height="48"
   version="1.1"
   id="svg23"
   sodipodi:docname="aegisub.svg"
   inkscape:version="0.92.4 (5da689c313, 2019-01-14)">
  <metadata
     id="metadata29">
    <rdf:RDF>
      <cc:Work
         rdf:about="">
        <dc:format>image/svg+xml</dc:format>
        <dc:type
           rdf:resource="http://purl.org/dc/dcmitype/StillImage" />
        <dc:title></dc:title>
      </cc:Work>
    </rdf:RDF>
  </metadata>
  <defs
     id="defs27" />
  <sodipodi:namedview
     pagecolor="#ffffff"
     bordercolor="#666666"
     borderopacity="1"
     objecttolerance="10"
     gridtolerance="10"
     guidetolerance="10"
     inkscape:pageopacity="0"
     inkscape:pageshadow="2"
     inkscape:window-width="640"
     inkscape:window-height="480"
     id="namedview25"
     showgrid="false"
     inkscape:zoom="29.365243"
     inkscape:cx="25.325443"
     inkscape:cy="32"
     inkscape:current-layer="svg23"
     units="px" />
  <linearGradient
     id="_lgradient_62"
     x1="0.10310485"
     y1="0.72792023"
     x2="0.894458"
     y2="0.25676322"
     gradientTransform="matrix(0,-41.153,47.15,0,0.57,44.576)"
     gradientUnits="userSpaceOnUse">
    <stop
       offset="0%"
       stop-opacity="1"
       style="stop-color:rgb(255,153,102)"
       id="stop2" />
    <stop
       offset="98.26086956521739%"
       stop-opacity="1"
       style="stop-color:rgb(255,94,98)"
       id="stop4" />
  </linearGradient>
  <linearGradient
     id="_lgradient_63"
     x1="0.22078557"
     y1="0.047239967"
     x2="0.9022491"
     y2="0.90614605"
     gradientTransform="matrix(29.462,0,0,17.562,9.269,15.219)"
     gradientUnits="userSpaceOnUse">
    <stop
       offset="2.608695652173913%"
       stop-opacity="1"
       style="stop-color:rgb(237,184,212)"
       id="stop9" />
    <stop
       offset="98.69565217391305%"
       stop-opacity="1"
       style="stop-color:rgb(162,110,245)"
       id="stop11" />
  </linearGradient>
  <linearGradient
     id="_lgradient_64"
     x1="-3.8208334e-05"
     y1="0.50000006"
     x2="0.99996185"
     y2="0.50000006"
     gradientTransform="matrix(7,0,0,7,20.5,20.5)"
     gradientUnits="userSpaceOnUse">
    <stop
       offset="0%"
       stop-opacity="1"
       style="stop-color:rgb(0,198,255)"
       id="stop16" />
    <stop
       offset="98.69565217391305%"
       stop-opacity="1"
       style="stop-color:rgb(0,114,255)"
       id="stop18" />
  </linearGradient>
  <g
     id="g839"
     transform="matrix(0.76352966,0,0,0.76352966,-0.43563539,-0.32471184)">
    <path
       id="path7"
       d="M 42.829,22.7 C 42.534,22.449 42.285,22.164 42.108,21.861 L 35.082,9.836 v 0 l -4.312,8.104 -0.95,1.77 -3.53,-1.89 0.94,-1.76 4.4,-8.252 H 18.557 v 0 0 l 3.883,7.252 0.94,1.76 -3.53,1.89 L 18.91,16.94 14.732,9.127 6.071,22.4 H 11 13 v 4 H 11 6.365 v 0 0 l 2.644,5.614 v 0 0 C 9.717,33 9.493,34.372 8.51,35.077 v 0 c -0.983,0.705 -2.355,0.477 -3.063,-0.51 v 0 L 0.951,26.018 C 0.388,24.947 0.458,23.249 1.107,22.228 L 11.885,5.274 c 0.649,-1.021 2.158,-1.85 3.368,-1.85 h 19.806 c 1.21,0 2.662,0.862 3.241,1.924 l 8.928,16.385 c 0.191,0.35 0.263,0.681 0.231,0.967 h 0.261 v 0 c 0,2.208 -0.896,4 -2,4 v 0 h -9.16 -2 v -4 h 2 z M 16.237,40.192 h 15.036 v 0 0 L 27.2,31.88 l -0.88,-1.8 3.6,-1.76 0.88,1.8 4.254,8.7 4.781,-6.826 v 0 0 0 0 c 0.629,-1.034 1.979,-1.368 3.014,-0.745 v 0 c 1.034,0.623 1.368,1.969 0.745,3.003 v 0 l -5.8,8.513 c -0.681,1 -2.216,1.811 -3.426,1.811 h -21 v 0 H 13 c -2.208,0 -3.123,-1.563 -2.042,-3.488 l 0.672,-1.198 6.71,-10 1.11,-1.67 3.33,2.23 -1.12,1.66 z"
       style="fill:url(#_lgradient_62);fill-rule:evenodd"
       inkscape:connector-curvature="0" />
    <path
       id="path14"
       d="m 24,15.219 c -5.629,0 -10.734,3.08 -14.5,8.082 -0.308,0.41 -0.308,0.982 0,1.392 3.766,5.008 8.871,8.088 14.5,8.088 5.629,0 10.734,-3.08 14.5,-8.082 0.308,-0.41 0.308,-0.982 0,-1.392 C 34.734,18.299 29.629,15.219 24,15.219 Z m 0.404,14.964 c -3.737,0.236 -6.823,-2.844 -6.587,-6.587 0.192,-3.086 2.693,-5.587 5.779,-5.779 3.737,-0.236 6.823,2.844 6.587,6.587 -0.198,3.079 -2.7,5.581 -5.779,5.779 z m -0.187,-2.856 c -2.013,0.126 -3.676,-1.531 -3.544,-3.544 0.103,-1.663 1.453,-3.007 3.116,-3.116 2.013,-0.126 3.676,1.531 3.544,3.544 -0.109,1.669 -1.459,3.013 -3.116,3.116 z"
       style="fill:url(#_lgradient_63)"
       inkscape:connector-curvature="0" />
    <path
       id="path21"
       d="m 20.5,24 c 0,-1.932 1.568,-3.5 3.5,-3.5 1.932,0 3.5,1.568 3.5,3.5 0,1.932 -1.568,3.5 -3.5,3.5 -1.932,0 -3.5,-1.568 -3.5,-3.5 z"
       style="fill:url(#_lgradient_64)"
       inkscape:connector-curvature="0" />
  </g>
</svg>

<?xml version="1.0" encoding="UTF-8" standalone="no"?><!-- Generator: Gravit.io --><svg xmlns="http://www.w3.org/2000/svg" xmlns:xlink="http://www.w3.org/1999/xlink" style="isolation:isolate" viewBox="0 0 48 48" width="48pt" height="48pt"><linearGradient id="_lgradient_62" x1="0.1031048558459271" y1="0.7279202279202284" x2="0.894458005829847" y2="0.25676323021455777" gradientTransform="matrix(0,-41.153,47.15,0,0.57,44.576)" gradientUnits="userSpaceOnUse"><stop offset="0%" stop-opacity="1" style="stop-color:rgb(255,153,102)"/><stop offset="98.26086956521739%" stop-opacity="1" style="stop-color:rgb(255,94,98)"/></linearGradient><path d=" M 42.829 22.7 C 42.534 22.449 42.285 22.164 42.108 21.861 L 35.082 9.836 L 35.082 9.836 L 30.77 17.94 L 29.82 19.71 L 26.29 17.82 L 27.23 16.06 L 31.63 7.808 L 18.557 7.808 L 18.557 7.808 L 18.557 7.808 L 22.44 15.06 L 23.38 16.82 L 19.85 18.71 L 18.91 16.94 L 14.732 9.127 L 6.071 22.4 L 11 22.4 L 13 22.4 L 13 26.4 L 11 26.4 L 6.365 26.4 L 6.365 26.4 L 6.365 26.4 L 9.009 32.014 L 9.009 32.014 L 9.009 32.014 C 9.717 33 9.493 34.372 8.51 35.077 L 8.51 35.077 C 7.527 35.782 6.155 35.554 5.447 34.567 L 5.447 34.567 L 0.951 26.018 C 0.388 24.947 0.458 23.249 1.107 22.228 L 11.885 5.274 C 12.534 4.253 14.043 3.424 15.253 3.424 L 35.059 3.424 C 36.269 3.424 37.721 4.286 38.3 5.348 L 47.228 21.733 C 47.419 22.083 47.491 22.414 47.459 22.7 L 47.72 22.7 L 47.72 22.7 C 47.72 24.908 46.824 26.7 45.72 26.7 L 45.72 26.7 L 36.56 26.7 L 34.56 26.7 L 34.56 22.7 L 36.56 22.7 L 42.829 22.7 Z  M 16.237 40.192 L 31.273 40.192 L 31.273 40.192 L 31.273 40.192 L 27.2 31.88 L 26.32 30.08 L 29.92 28.32 L 30.8 30.12 L 35.054 38.82 L 39.835 31.994 L 39.835 31.994 L 39.835 31.994 L 39.835 31.994 L 39.835 31.994 C 40.464 30.96 41.814 30.626 42.849 31.249 L 42.849 31.249 C 43.883 31.872 44.217 33.218 43.594 34.252 L 43.594 34.252 L 37.794 42.765 C 37.113 43.765 35.578 44.576 34.368 44.576 L 13.368 44.576 L 13.368 44.576 L 13 44.576 C 10.792 44.576 9.877 43.013 10.958 41.088 L 11.63 39.89 L 18.34 29.89 L 19.45 28.22 L 22.78 30.45 L 21.66 32.11 L 16.237 40.192 L 16.237 40.192 Z " fill-rule="evenodd" fill="url(#_lgradient_62)"/><linearGradient id="_lgradient_63" x1="0.22078557924020603" y1="0.04723996636961164" x2="0.9022490870014594" y2="0.9061460265379022" gradientTransform="matrix(29.462,0,0,17.562,9.269,15.219)" gradientUnits="userSpaceOnUse"><stop offset="2.608695652173913%" stop-opacity="1" style="stop-color:rgb(237,184,212)"/><stop offset="98.69565217391305%" stop-opacity="1" style="stop-color:rgb(162,110,245)"/></linearGradient><path d=" M 24 15.219 C 18.371 15.219 13.266 18.299 9.5 23.301 C 9.192 23.711 9.192 24.283 9.5 24.693 C 13.266 29.701 18.371 32.781 24 32.781 C 29.629 32.781 34.734 29.701 38.5 24.699 C 38.808 24.289 38.808 23.717 38.5 23.307 C 34.734 18.299 29.629 15.219 24 15.219 Z  M 24.404 30.183 C 20.667 30.419 17.581 27.339 17.817 23.596 C 18.009 20.51 20.51 18.009 23.596 17.817 C 27.333 17.581 30.419 20.661 30.183 24.404 C 29.985 27.483 27.483 29.985 24.404 30.183 Z  M 24.217 27.327 C 22.204 27.453 20.541 25.796 20.673 23.783 C 20.776 22.12 22.126 20.776 23.789 20.667 C 25.802 20.541 27.465 22.198 27.333 24.211 C 27.224 25.88 25.874 27.224 24.217 27.327 Z " fill="url(#_lgradient_63)"/><linearGradient id="_lgradient_64" x1="-0.000038208333333289435" y1="0.5000000833333331" x2="0.9999618333333335" y2="0.5000000833333331" gradientTransform="matrix(7,0,0,7,20.5,20.5)" gradientUnits="userSpaceOnUse"><stop offset="0%" stop-opacity="1" style="stop-color:rgb(0,198,255)"/><stop offset="98.69565217391305%" stop-opacity="1" style="stop-color:rgb(0,114,255)"/></linearGradient><path d=" M 20.5 24 C 20.5 22.068 22.068 20.5 24 20.5 C 25.932 20.5 27.5 22.068 27.5 24 C 27.5 25.932 25.932 27.5 24 27.5 C 22.068 27.5 20.5 25.932 20.5 24 Z " fill="url(#_lgradient_64)"/></svg>
